logos/hashicorp.svg

<?xml version="1.0" encoding="UTF-8"?>
<svg width="512px" height="120px" viewBox="0 0 512 120" version="1.1" xmlns="http://www.w3.org/2000/svg" preserveAspectRatio="xMidYMid">
    <title>HashiCorp</title>
    <g fill="#000000">
        <path d="M174.138424,92.8499964 L174.138424,65.3265606 L149.930619,65.3265606 L149.930619,92.8499964 L137.604853,92.8499964 L137.604853,27.5850646 L149.930619,27.5850646 L149.930619,54.4305833 L174.138424,54.4305833 L174.138424,27.5850646 L186.46419,27.5850646 L186.46419,92.8499964 L174.138424,92.8499964 Z M231.650449,92.8499964 L221.863791,92.8499964 L220.976335,89.6206457 C216.746263,92.3701162 211.809834,93.8343474 206.764727,93.8360577 C198.038085,93.8360577 194.315703,87.8580611 194.315703,79.6244493 C194.315703,69.9240714 198.531115,66.20169 208.231493,66.20169 L219.694456,66.20169 L219.694456,61.1974289 L219.688835,60.6534115 C219.583922,55.7813568 217.95955,54.0484846 210.585715,54.0484846 C206.140994,54.0793332 201.710475,54.5541791 197.360168,55.4659477 L195.893401,46.3572065 C201.225155,44.8814122 206.72983,44.1228614 212.262019,44.1015913 C227.25015,44.1015913 231.662775,49.389345 231.662775,61.3576639 L231.650449,92.8499964 Z M219.706782,81.8677388 L219.694456,74.8174005 L210.881533,74.8174005 C206.961939,74.8174005 205.889598,75.8897422 205.889598,79.5258432 C205.889598,82.8538 206.961939,84.332892 210.696647,84.332892 C213.859535,84.2819056 216.95848,83.434041 219.706782,81.8677388 Z M254.785912,93.8237319 C249.190662,93.7318453 243.640454,92.8054259 238.318688,91.0750861 L239.982667,81.9663449 C244.605639,83.2889625 249.386021,83.9813509 254.194275,84.0247478 L254.858774,84.0176666 C259.549133,83.9131402 260.270878,82.6367594 260.270878,79.217699 L260.264533,78.7503502 C260.188123,76.2227773 259.32716,74.8144321 252.755043,73.1454956 L251.93866,72.9438841 C240.431909,70.1340959 238.948111,67.240283 238.911056,58.3159559 L238.910325,57.9557524 C238.910325,48.3539806 243.125737,44.1385686 256.745709,44.1385686 C261.563786,44.1429844 266.365383,44.7013096 271.055923,45.802547 L269.823347,55.3057127 C265.490347,54.5061341 261.10116,54.0486695 256.696406,53.9375527 C251.507258,53.9375527 250.619803,55.1701293 250.619803,58.0543586 L250.623713,58.6702091 C250.669128,61.6537778 251.188074,62.190509 256.024505,63.4796685 L257.386649,63.8351429 C270.747779,67.3726378 272.029659,69.1352223 272.029659,78.8849033 L272.025039,79.5176004 C271.892647,88.3998004 268.851453,93.8237319 254.785912,93.8237319 Z M307.60182,92.8499964 L307.60182,59.5704278 C307.60182,57.0189942 306.529478,55.7494403 303.780832,55.7494403 C300.8473,55.7494403 295.645827,57.5120248 291.331809,59.76764 L291.331809,92.8499964 L279.375815,92.8499964 L279.375815,25.6252678 L291.331809,23.9612894 L291.331809,48.7484051 C296.744277,45.9701439 302.694402,44.3974605 308.772768,44.1385686 C316.710561,44.1385686 319.545487,49.7221406 319.545487,58.2515708 L319.545487,92.8499964 L307.60182,92.8499964 Z M328.370736,38.37011 L328.370736,24.5529262 L340.326729,24.5529262 L340.326729,38.37011 L328.370736,38.37011 Z M328.370736,92.8499964 L328.370736,45.1246299 L340.326729,45.1246299 L340.326729,92.8499964 L328.370736,92.8499964 Z M348.658947,45.5190544 C348.658947,33.5630612 355.610679,26.6113255 371.88069,26.6113255 C377.858448,26.6100135 383.814265,27.3343137 389.617468,28.7683382 L388.261634,39.4424517 C382.976359,38.4409492 377.616421,37.8843402 372.238138,37.7784732 C363.850865,37.7784732 361.065207,40.6269544 360.974682,47.2966511 L360.972387,72.7220203 C360.972387,79.6737524 363.721033,82.5826332 372.238138,82.5826332 C377.616421,82.4767662 382.976359,81.9201572 388.261634,80.9186548 L389.629794,91.605094 C383.826591,93.0391185 377.870774,93.7634187 371.893016,93.7621067 C355.623005,93.7621067 348.671273,86.810371 348.671273,74.8543778 L348.658947,45.5190544 Z M414.145743,93.8237319 C397.777125,93.8237319 393.376827,84.8135969 393.376827,75.0146128 L393.376827,62.9600135 C393.376827,53.1610294 397.789451,44.1508943 414.145743,44.1508943 C430.502034,44.1508943 434.914659,53.1610294 434.914659,62.9600135 L434.914659,75.0146128 L434.9063,75.6389293 C434.685033,85.192928 430.129901,93.8237319 414.145743,93.8237319 Z M414.145743,54.3812802 C407.773321,54.3812802 405.33282,57.2285322 405.33282,62.614892 L405.33282,75.4090373 C405.33282,80.7953971 407.797973,83.6426491 414.145743,83.6426491 C420.493512,83.6426491 422.958665,80.7953971 422.958665,75.4090373 L422.958665,62.565589 C422.934014,57.1792292 420.481186,54.3319772 414.145743,54.3319772 L414.145743,54.3812802 Z M466.628855,55.1208262 C462.240784,57.1090913 458.012803,59.4332446 453.982619,62.0725583 L453.982619,92.8869737 L442.026626,92.8869737 L442.026626,45.1246299 L452.121428,45.1246299 L452.910277,50.4123835 C456.799136,47.7791206 461.017982,45.6696976 465.457907,44.1385686 L466.628855,55.1208262 Z M511.963023,76.9744096 C511.963023,87.5622427 507.25458,93.8237319 496.186042,93.8237319 C491.903,93.7787345 487.63454,93.3163868 483.4412,92.4432461 L483.4412,112.164472 L471.485207,113.82845 L471.485207,45.1246299 L480.988372,45.1246299 L482.220949,49.1428296 C486.577167,45.8901067 491.871081,44.138444 497.307687,44.1507632 C506.909459,44.1507632 512,49.8330725 512,60.716724 L511.963023,76.9744096 Z M483.453526,82.3607694 C486.932416,83.1263841 490.479628,83.5393309 494.041359,83.593346 C498.355377,83.593346 500.019355,81.5349431 500.019355,77.2209249 L500.019355,60.3962541 C500.019355,56.4766605 498.552589,54.3196514 494.139965,54.3196514 C490.182593,54.4621151 486.40071,55.9888272 483.453526,58.6336696 L483.453526,82.3607694 Z"></path>
        <path d="M95.3151496,16.9972315 L113.01495,27.2152917 L113.01495,92.4802234 L65.9058716,119.658538 L65.9058716,99.247069 L95.3151496,82.2621633 L95.3151496,16.9972315 Z M65.9058716,0 L83.6056718,10.2180601 L83.6056718,76.8634777 L65.9058716,87.0692121 L65.9058716,67.8040396 L47.1090782,67.8040396 L47.1090782,119.633886 L29.409278,109.391175 L29.409278,42.7950601 L47.1090782,32.5769999 L47.1090782,51.9777558 L65.9058716,51.9777558 L65.9058716,0 Z M47.1090782,0 L47.1090782,20.4114687 L17.6998002,37.3963745 L17.6998002,102.661306 L0,92.4432461 L0,27.1783144 L47.1090782,0 Z"></path>
    </g>
</svg>

<svg preserveAspectRatio="xMidYMid" viewBox="0 0 512 120" xmlns="http://www.w3.org/2000/svg">
  <path d="M174.138 92.85V65.327h-24.207V92.85h-12.326V27.585h12.326v26.846h24.207V27.585h12.326V92.85h-12.326Zm57.512 0h-9.786l-.888-3.23a26.094 26.094 0 0 1-14.211 4.216c-8.727 0-12.45-5.978-12.45-14.212 0-9.7 4.216-13.422 13.916-13.422h11.463v-5.005l-.005-.544c-.105-4.872-1.73-6.605-9.103-6.605a66.726 66.726 0 0 0-13.226 1.418l-1.467-9.109a62.257 62.257 0 0 1 16.369-2.255c14.988 0 19.4 5.287 19.4 17.256l-.012 31.492Zm-11.943-10.982-.013-7.05h-8.812c-3.92 0-4.992 1.072-4.992 4.708 0 3.328 1.072 4.807 4.807 4.807a18.81 18.81 0 0 0 9.01-2.465Zm35.079 11.956a56.242 56.242 0 0 1-16.467-2.749l1.664-9.109a53.42 53.42 0 0 0 14.211 2.059l.665-.007c4.69-.105 5.412-1.381 5.412-4.8l-.006-.468c-.077-2.527-.938-3.936-7.51-5.605l-.816-.201c-11.507-2.81-12.99-5.704-13.028-14.628v-.36c0-9.602 4.215-13.817 17.835-13.817a62.79 62.79 0 0 1 14.31 1.664l-1.233 9.503a84.012 84.012 0 0 0-13.127-1.368c-5.189 0-6.076 1.232-6.076 4.116l.004.616c.045 2.984.564 3.52 5.4 4.81l1.363.355c13.36 3.538 14.643 5.3 14.643 15.05l-.005.633c-.132 8.882-3.174 14.306-17.24 14.306Zm52.816-.974V59.57c0-2.551-1.073-3.82-3.821-3.82-2.934 0-8.135 1.762-12.45 4.018V92.85h-11.955V25.625l11.956-1.664v24.787a42.117 42.117 0 0 1 17.44-4.61c7.939 0 10.773 5.584 10.773 14.114V92.85h-11.943Zm20.769-54.48V24.553h11.956V38.37H328.37Zm0 54.48V45.125h11.956V92.85H328.37Zm20.288-47.33c0-11.957 6.952-18.909 23.222-18.909a73.869 73.869 0 0 1 17.736 2.157l-1.355 10.674a96.24 96.24 0 0 0-16.024-1.664c-8.387 0-11.173 2.849-11.263 9.519l-.003 25.425c0 6.952 2.749 9.86 11.266 9.86a96.24 96.24 0 0 0 16.024-1.663l1.368 10.686a73.869 73.869 0 0 1-17.737 2.157c-16.27 0-23.222-6.952-23.222-18.908l-.012-29.335Zm65.487 48.304c-16.369 0-20.77-9.01-20.77-18.81V62.96c0-9.799 4.413-18.81 20.77-18.81 16.356 0 20.769 9.011 20.769 18.81v12.055l-.009.624c-.221 9.554-4.776 18.185-20.76 18.185Zm0-39.443c-6.373 0-8.813 2.848-8.813 8.234v12.794c0 5.386 2.465 8.234 8.813 8.234 6.348 0 8.813-2.848 8.813-8.234V62.566c-.025-5.387-2.478-8.234-8.813-8.234v.05Zm52.483.74a93.577 93.577 0 0 0-12.646 6.952v30.814h-11.956V45.125h10.094l.79 5.287a53.47 53.47 0 0 1 12.547-6.273l1.17 10.982Zm45.334 21.853c0 10.588-4.708 16.85-15.777 16.85a65.918 65.918 0 0 1-12.745-1.38v19.72l-11.956 1.664V45.125h9.503l1.233 4.018a25.12 25.12 0 0 1 15.087-4.992c9.601 0 14.692 5.682 14.692 16.566l-.037 16.257Zm-28.51 5.387a53 53 0 0 0 10.588 1.232c4.314 0 5.978-2.058 5.978-6.372V60.396c0-3.92-1.466-6.076-5.879-6.076a16.91 16.91 0 0 0-10.686 4.314V82.36Z"/>
  <path d="m95.315 16.997 17.7 10.218V92.48l-47.11 27.179V99.247l29.41-16.985V16.997ZM65.905 0l17.7 10.218v66.645l-17.7 10.206V67.804H47.11v51.83l-17.7-10.243V42.795l17.7-10.218v19.4h18.797V0ZM47.11 0v20.411L17.7 37.396v65.265L0 92.443V27.178L47.11 0Z"/>
</svg>
